img/messages-icon.svg

<svg fill="none" height="24" viewBox="0 0 24 24" width="24" xmlns="http://www.w3.org/2000/svg"><path d="m7.85156 9.125h8.00004m-8.00004 4h6.00004m4-9c.7956 0 1.5587.31607 2.1213.87868s.8787 1.32567.8787 2.12132v8c0 .7956-.3161 1.5587-.8787 2.1213s-1.3257.8787-2.1213.8787h-5l-5.00004 3v-3h-2c-.79565 0-1.55871-.3161-2.12132-.8787s-.87868-1.3257-.87868-2.1213v-8c0-.79565.31607-1.55871.87868-2.12132s1.32567-.87868 2.12132-.87868z" stroke="#04162c" stroke-linecap="round" stroke-linejoin="round" stroke-opacity=".5" stroke-width="2"/></svg>

<svg width="24" height="24" viewBox="0 0 24 24" fill="none" xmlns="http://www.w3.org/2000/svg">
<path d="M7.85156 9.125H15.8516M7.85156 13.125H13.8516M17.8516 4.125C18.6472 4.125 19.4103 4.44107 19.9729 5.00368C20.5355 5.56629 20.8516 6.32935 20.8516 7.125V15.125C20.8516 15.9206 20.5355 16.6837 19.9729 17.2463C19.4103 17.8089 18.6472 18.125 17.8516 18.125H12.8516L7.85156 21.125V18.125H5.85156C5.05591 18.125 4.29285 17.8089 3.73024 17.2463C3.16763 16.6837 2.85156 15.9206 2.85156 15.125V7.125C2.85156 6.32935 3.16763 5.56629 3.73024 5.00368C4.29285 4.44107 5.05591 4.125 5.85156 4.125H17.8516Z" stroke="#04162C" stroke-opacity="0.5" stroke-width="2" stroke-linecap="round" stroke-linejoin="round"/>
</svg>
